X:1770
T:Filurens Vals
M:3/4
O:Finland
R:Waltz
Z:Richard Robinson 
%%TUNEURL: http://www.leeds.ac.uk/music/Info/RRTuneBk/gettune/0000079f.html
%%ID:0000079f
K:A min
E6|c4B2|A6|^G2A2B2|A3G FE| D2F2A2|E6-|E6:|
|:E6|c4Bc| d3e dc| B2c2d2|e3f ed|c4B2|A6|E6:|
